X: 27412
T: Moig Cross
R: slide
M: 12/8
K: Amixolydian
|:G|E2 A AGE G2 A B2 d|E2 A AGE G2 E D2 G|
EAA AGE G2 A Bcd|ege dBG A3 A2:|
|:g|ege efe d2 d dcd|e2 e e2 f g2 e d3|
[1 e2 e eg/f/e d2 d dcB|ABc B2 A G2 E D2:|
[2 c3 cBA cec cBA|GA/B/c B2 A G2 E D2||

